icons/outline/brand-google-podcasts.svg

<!--
tags: [app, android, ios, discover, listen]
category: Brand
unicode: "f656"
version: "1.119"
-->
<svg
  xmlns="http://www.w3.org/2000/svg"
  width="24"
  height="24"
  viewBox="0 0 24 24"
  fill="none"
  stroke="currentColor"
  stroke-width="2"
  stroke-linecap="round"
  stroke-linejoin="round"
>
  <path d="M12 3v2m0 14v2m0 -13v8m-4 1v2m-4 -8v2m16 -2v2m-12 -8v8m8 -6v-2m0 14v-8" />
</svg>

<!--
tags: [app, android, ios, discover, listen]
category: Brand
unicode: "f656"
version: "1.119"
-->
<svg
  xmlns="http://www.w3.org/2000/svg"
  width="24"
  height="24"
  viewBox="0 0 24 24"
  fill="none"
  stroke="currentColor"
  stroke-width="2"
  stroke-linecap="round"
  stroke-linejoin="round"
>
    <path d="M12 3v2M12 19v2M12 8v8M8 17v2M4 11v2M20 11v2M8 5v8M16 7v-2M16 19v-8" />
</svg>
